_includes/icons/ios-natural-food.svg

<svg fill="#666" height="50" viewBox="0 0 50 50" width="50" xmlns="http://www.w3.org/2000/svg"><path d="m10.96875 3c-.222656.023438-.433594.125-.59375.28125 0 0-7.375 6.855469-7.375 15.15625 0 4.425781 1.726563 8.773438 6.125 11.5.476563 1.96875.820313 3.742188.5625 5.3125-.089844.367188.035156.75.320313.996094.285156.246094.6875.308594 1.035156.164062.347656-.144531.585937-.472656.613281-.847656.542969-3.304687-.777344-6.453125-1.53125-9.9375s-1.046875-7.28125 1.125-12.0625c.152344-.3125.132813-.679687-.054687-.972656-.183594-.289063-.503907-.46875-.851563-.464844-.398437.007813-.757812.253906-.90625.625-2.375 5.222656-2.042969 9.601563-1.25 13.28125.066406.308594.148438.578125.21875.875-2.460937-2.257812-3.40625-5.226562-3.40625-8.46875 0-6.332031 4.894531-11.65625 6.03125-12.84375 1 1.148438 4.125 4.859375 4.8125 9.03125.46875 2.84375-.292969 5.257813-1.28125 7.0625-.492187.902344-1.039062 1.648438-1.5 2.1875-.460937.539063-.886719.929688-.9375.96875-.332031.195313-.523437.558594-.492187.941406.027343.386719.277343.714844.636718.855469.355469.136719.761719.058594 1.042969-.203125.3125-.234375.742188-.617187 1.28125-1.25.539063-.632812 1.148438-1.488281 1.71875-2.53125 1.140625-2.085937 2.054688-4.972656 1.5-8.34375-.960937-5.835937-6.03125-11-6.03125-11-.207031-.222656-.507812-.335937-.8125-.3125zm17.9375 17.0625c-.6875 0-1.382812.046875-2.09375.125-7.566406.820313-11.097656 5.042969-12.46875 8.96875s-.78125 7.625-.78125 7.625v.03125c-3.066406 3.207031-4.4375 6.03125-4.4375 6.03125-.210937.324219-.21875.742188-.019531 1.070313.203125.332031.578125.515625.964844.472656.382812-.042969.710937-.300781.835937-.667969 0 0 3.554688-7.320312 12.21875-11.40625 5.910156-2.789062 13.5625-1.9375 13.5625-1.9375.375.097656.773438-.03125 1.019531-.332031.246094-.296875.300782-.710938.132813-1.0625-.164063-.351563-.515625-.574219-.902344-.574219 0 0-2.015625-.257812-4.84375-.125-2.828125.132813-6.492187.652344-9.8125 2.21875-2.742187 1.292969-5.007812 2.882813-6.84375 4.5-.027344-1.265625.070313-3.15625.78125-5.1875 1.1875-3.394531 3.882813-6.871094 10.8125-7.625 9.207031-1 16.328125 5.519531 17.6875 6.84375-.972656 1.714844-6.460937 10.691406-16.65625 11.8125-5.695312.625-10.6875-2.03125-10.6875-2.03125-.316406-.222656-.730469-.242187-1.070312-.054687-.335938.191406-.53125.558593-.503907.945312.027344.386719.277344.71875.636719.859375 0 0 5.421875 2.957031 11.84375 2.25 12.449219-1.371094 18.59375-13.53125 18.59375-13.53125.1875-.371094.125-.820312-.15625-1.125 0 0-7.503906-8.097656-17.8125-8.09375z"/></svg>

<svg xmlns="http://www.w3.org/2000/svg" viewBox="0 0 50 50" width="50" height="50" fill="#666"><path d="M 10.96875 3 C 10.746094 3.023438 10.535156 3.125 10.375 3.28125 C 10.375 3.28125 3 10.136719 3 18.4375 C 3 22.863281 4.726563 27.210938 9.125 29.9375 C 9.601563 31.90625 9.945313 33.679688 9.6875 35.25 C 9.597656 35.617188 9.722656 36 10.007813 36.246094 C 10.292969 36.492188 10.695313 36.554688 11.042969 36.410156 C 11.390625 36.265625 11.628906 35.9375 11.65625 35.5625 C 12.199219 32.257813 10.878906 29.109375 10.125 25.625 C 9.371094 22.140625 9.078125 18.34375 11.25 13.5625 C 11.402344 13.25 11.382813 12.882813 11.195313 12.589844 C 11.011719 12.300781 10.691406 12.121094 10.34375 12.125 C 9.945313 12.132813 9.585938 12.378906 9.4375 12.75 C 7.0625 17.972656 7.394531 22.351563 8.1875 26.03125 C 8.253906 26.339844 8.335938 26.609375 8.40625 26.90625 C 5.945313 24.648438 5 21.679688 5 18.4375 C 5 12.105469 9.894531 6.78125 11.03125 5.59375 C 12.03125 6.742188 15.15625 10.453125 15.84375 14.625 C 16.3125 17.46875 15.550781 19.882813 14.5625 21.6875 C 14.070313 22.589844 13.523438 23.335938 13.0625 23.875 C 12.601563 24.414063 12.175781 24.804688 12.125 24.84375 C 11.792969 25.039063 11.601563 25.402344 11.632813 25.785156 C 11.660156 26.171875 11.910156 26.5 12.269531 26.640625 C 12.625 26.777344 13.03125 26.699219 13.3125 26.4375 C 13.625 26.203125 14.054688 25.820313 14.59375 25.1875 C 15.132813 24.554688 15.742188 23.699219 16.3125 22.65625 C 17.453125 20.570313 18.367188 17.683594 17.8125 14.3125 C 16.851563 8.476563 11.78125 3.3125 11.78125 3.3125 C 11.574219 3.089844 11.273438 2.976563 10.96875 3 Z M 28.90625 20.0625 C 28.21875 20.0625 27.523438 20.109375 26.8125 20.1875 C 19.246094 21.007813 15.714844 25.230469 14.34375 29.15625 C 12.972656 33.082031 13.5625 36.78125 13.5625 36.78125 C 13.5625 36.792969 13.5625 36.800781 13.5625 36.8125 C 10.496094 40.019531 9.125 42.84375 9.125 42.84375 C 8.914063 43.167969 8.90625 43.585938 9.105469 43.914063 C 9.308594 44.246094 9.683594 44.429688 10.070313 44.386719 C 10.453125 44.34375 10.78125 44.085938 10.90625 43.71875 C 10.90625 43.71875 14.460938 36.398438 23.125 32.3125 C 29.035156 29.523438 36.6875 30.375 36.6875 30.375 C 37.0625 30.472656 37.460938 30.34375 37.707031 30.042969 C 37.953125 29.746094 38.007813 29.332031 37.839844 28.980469 C 37.675781 28.628906 37.324219 28.40625 36.9375 28.40625 C 36.9375 28.40625 34.921875 28.148438 32.09375 28.28125 C 29.265625 28.414063 25.601563 28.933594 22.28125 30.5 C 19.539063 31.792969 17.273438 33.382813 15.4375 35 C 15.410156 33.734375 15.507813 31.84375 16.21875 29.8125 C 17.40625 26.417969 20.101563 22.941406 27.03125 22.1875 C 36.238281 21.1875 43.359375 27.707031 44.71875 29.03125 C 43.746094 30.746094 38.257813 39.722656 28.0625 40.84375 C 22.367188 41.46875 17.375 38.8125 17.375 38.8125 C 17.058594 38.589844 16.644531 38.570313 16.304688 38.757813 C 15.96875 38.949219 15.773438 39.316406 15.800781 39.703125 C 15.828125 40.089844 16.078125 40.421875 16.4375 40.5625 C 16.4375 40.5625 21.859375 43.519531 28.28125 42.8125 C 40.730469 41.441406 46.875 29.28125 46.875 29.28125 C 47.0625 28.910156 47 28.460938 46.71875 28.15625 C 46.71875 28.15625 39.214844 20.058594 28.90625 20.0625 Z"/></svg>
